X: 514
T: Cemâlin Şem`ine Pervâne Gönlüm
C: Zekâî Dede
O: Turkey
F: http://compmusic.upf.edu/node/140
N: huseyniasiran--sarki--curcuna--cemalin_semine--zekai_dede
N: makam= huseyniasiran
N: form= sarki
N: usul= curcuna = 10/8
M: 10/8
L: 1/16
K: C _1/4B ^f  
Q: 1/4=198
%%MIDI tuningsystem comma53
z4 d2e4e8-e2  | f2e2 f2g4f2 e2d6  | d6{c'}=b4a4g4f2  | \
w:  Ce mâ lin   |  şem *  *  i ne   |  per *  *  vâ  | 
f2e2 g2f2 e2e8-e2  | 
w:  ne  *  gön *  *  lüm    | 
z4 d2e4e8-e2  | f2e2 f2g4f2 e2d6  | d6{c'}=b4a4g4f2  | \
w:  Ce mâ lin   |  şem *  *  i ne   |  per *  *  vâ  | 
f2e2 g2f2 e2e8-e2  | 
w:  ne  *  gön *  *  lüm    | 
z4 d2e4e2 d2c4B2  | B4 A2c2 B2A2 G2A6  | \
w:  Çe vir din   |  yan *  dı *  rıp   | 
G2A2 B4 G2F2 G2A4F2  | 
w:  kül *  *  *  hâ  | 
E2F2 G2F2 E2E4e6  | z4 d2e4e2 d2c4B2  | \
w:  ne  *  gön *  *  lüm    |  Çe vir din   | 
B4 A2c2 B2A2 G2A6  | 
w:  yan *  dı *  rıp   | 
G2A2 B4 G2F2 G2A4F2  | E2F2 G2F2 E2E8z2  | \
w:  kül *  *  *  hâ  |  ne  *  gön *  *  lüm    | 
z4 f2g4g2 f2g6  | 
w:  Ha râb_ ol  | 
{g}f3e f2g4f2 e2d6  | d6{c'}=b4a4g4f2  | \
w:  *  du  *  *  ye tiş   |  vî *  *  râ  | 
f2e2 g2f2 e2e2 f2g6  | z4 f2g4g2 f2g6  | 
w:  ne  *  gön *  *  lüm    |  Ha râb_ ol  | 
{g}f3e f2g4f2 e2d6  | d6{c'}=b4a4g4f2  | \
w:  *  du  *  *  ye tiş   |  vî *  *  râ  | 
f2e2 g2f2 e2e8-e2  | z4 d2e4e2 d2c4B2  | 
w:  ne  *  gön *  *  lüm    |  Çe vir din   | 
B4 A2c2 B2A2 G2A6  | G2A2 B4 G2F2 G2A4F2  | \
w:  yan *  dı *  rıp   |  kül *  *  *  hâ  | 
E2F2 G2F2 E2E4e6  | 
w:  ne  *  gön *  *  lüm    | 
z4 d2e4e2 d2c4B2  | B4 A2c2 B2A2 G2A6  | \
w:  Çe vir din   |  yan *  dı *  rıp   | 
G2A2 B4 G2F2 G2A4F2  | 
w:  kül *  *  *  hâ  | 
E2F2 G2F2 E2E8z2  | z4 d2e4e8-e2  | f2e2 f2g4f2 e2d6  | \
w:  ne  *  gön *  *  lüm    |  Ce mâ lin   |  şem *  *  i ne   | 
d6{c'}=b4a4g4f2  | 
w:  per *  *  vâ  | 
f2e2 g2f2 e2e8-e2  | z4 d2e4e8-e2  | \
w:  ne  *  gön *  *  lüm    |  Ce mâ lin   | 
f2e2 f2g4f2 e2d6  | d6{c'}=b4a4g4f2  | 
w:  şem *  *  i ne   |  per *  *  vâ  | 
f2e2 g2f2 e2e8-e2  | z4 d2e4e2 d2c4B2  | \
w:  ne  *  gön *  *  lüm    |  Çe vir din   | 
B4 A2c2 B2A2 G2A6  | 
w:  yan *  dı *  rıp   | 
G2A2 B4 G2F2 G2A4F2  | E2F2 G2F2 E2E4e6  | \
w:  kül *  *  *  hâ  |  ne  *  gön *  *  lüm    | 
z4 d2e4e2 d2c4B2  | 
w:  Çe vir din   | 
B4 A2c2 B2A2 G2A6  | G2A2 B4 G2F2 G2A4F2  | \
w:  yan *  dı *  rıp   |  kül *  *  *  hâ  | 
E2F2 G2F2 E2E8z2  | 
w:  ne  *  gön *  *  lüm    | 
z4 f2g4g2 f2g6  | {g}f3e f2g4f2 e2d6  | \
w:  Ha râb_ ol  |  *  du  *  *  ye tiş   | 
d6{c'}=b4a4g4f2  | f2e2 g2f2 e2e2 f2g6  | 
w:  vî *  *  râ  |  ne  *  gön *  *  lüm    | 
z4 f2g4g2 f2g6  | {g}f3e f2g4f2 e2d6  | \
w:  Ha râb_ ol  |  *  du  *  *  ye tiş   | 
d6{c'}=b4a4g4f2  | f2e2 g2f2 e2e8-e2  | 
w:  vî *  *  râ  |  ne  *  gön *  *  lüm    | 
z4 d2e4e2 d2c4B2  | B4 A2c2 B2A2 G2A6  | \
w:  Çe vir din   |  yan *  dı *  rıp   | 
G2A2 B4 G2F2 G2A4F2  | 
w:  kül *  *  *  hâ  | 
E2F2 G2F2 E2E4e6  | z4 d2e4e2 d2c4B2  | \
w:  ne  *  gön *  *  lüm    |  Çe vir din   | 
B4 A2c2 B2A2 G2A6  | 
w:  yan *  dı *  rıp   | 
G2A2 B4 G2F2 G2A4F2  | E2F2 G2F2 E2E8z2  | |


